icons/svg/survey-bold.svg

<svg width="32" height="32" viewBox="0 0 32 32" fill="none" xmlns="http://www.w3.org/2000/svg">
<path d="M25.5064 4.32786L25.1976 5.22136L24.2525 4.89478L25.1906 5.24113C25.0984 5.49084 24.9344 5.70717 24.7197 5.86333C24.5048 6.01969 24.2485 6.10888 23.9831 6.11981L23.9625 6.12066H23.1118L23.7701 6.6862C23.9761 6.85519 24.1297 7.07987 24.2122 7.33392C24.2975 7.59674 24.3029 7.879 24.2276 8.14487L24.2226 8.16223L23.94 9.03814L24.7525 8.48409C24.9739 8.33627 25.2341 8.25749 25.5 8.25749C25.766 8.25749 26.0262 8.33626 26.2476 8.48409L26.2558 8.48963L27.0612 9.03895L26.7682 8.12919L26.7632 8.11138C26.691 7.85526 26.6964 7.58345 26.7786 7.33036C26.8581 7.08568 27.0059 6.86957 27.2037 6.70689L27.8869 6.12066H27.0599L27.0408 6.11993C26.7753 6.1098 26.518 6.02133 26.3018 5.8646C26.0861 5.7082 25.9216 5.49128 25.8293 5.24125L25.8245 5.22802L25.5064 4.32786ZM23.4619 4.12066L24.2325 1.8904L24.236 1.88099C24.3312 1.62238 24.5035 1.39934 24.7294 1.24185C24.9557 1.08404 25.2246 1 25.4993 1C25.7741 1 26.043 1.08403 26.2693 1.24185C26.4952 1.39934 26.6675 1.62238 26.7627 1.88099L26.7672 1.8932L27.5544 4.12066H29.6883L29.7086 4.12149C29.9832 4.13267 30.2479 4.22764 30.4671 4.39371C30.6865 4.56003 30.8494 4.78948 30.9342 5.05074C31.0192 5.31239 31.022 5.59373 30.9421 5.85698C30.865 6.11132 30.7143 6.3371 30.5091 6.50586L28.8148 7.95981L29.5603 10.2739L29.5657 10.2934C29.6394 10.5581 29.6302 10.8391 29.5395 11.0984C29.4487 11.3578 29.2808 11.5831 29.0584 11.7441C28.8357 11.9054 28.5693 11.9944 28.2951 11.9997C28.0212 12.0051 27.7515 11.9268 27.5224 11.7743L27.5132 11.7682L25.5 10.395L23.4777 11.7744C23.2486 11.9269 22.9789 12.0051 22.705 11.9997C22.4308 11.9944 22.1644 11.9054 21.9417 11.7441C21.7193 11.5831 21.5514 11.3578 21.4606 11.0984C21.3699 10.839 21.3607 10.5581 21.4344 10.2934L21.4399 10.2737L22.1858 7.96183L20.4907 6.50563C20.2857 6.3369 20.1351 6.11121 20.058 5.85698C19.9781 5.59373 19.9809 5.31239 20.0659 5.05074C20.1507 4.78948 20.3136 4.56003 20.533 4.39371C20.7521 4.22765 21.0168 4.13267 21.2915 4.12149L21.3118 4.12066H23.4619Z" fill="black"/>
<path d="M7.00012 6.5C5.34362 6.5 4.00012 7.84388 4.0001 9.50109L4.00001 19C4.00001 20.8479 4.81526 21.8133 5.71485 22.2078C6.1957 22.4188 6.43153 22.9656 6.25485 23.4601C6.03313 24.0806 5.60262 24.6696 5.12793 25.1533C5.03739 25.2456 4.94311 25.3362 4.84565 25.4246C5.37736 25.4192 6.00004 25.3229 6.62864 25.0715C7.43164 24.7503 8.11737 24.3683 8.82293 23.9753C9.09907 23.8215 9.37825 23.666 9.66869 23.5117C10.6483 22.9916 11.7407 22.5 13 22.5H25.0027C26.6587 22.5 28.0001 21.1577 28.0001 19.5V14C28.0001 13.4477 28.4478 13 29.0001 13C29.5524 13 30.0001 13.4477 30.0001 14V19.5C30.0001 22.2606 27.7649 24.5 25.0027 24.5H13C12.2593 24.5 11.5353 24.785 10.6067 25.2781C10.3838 25.3965 10.1457 25.5292 9.89401 25.6694C9.15693 26.0801 8.30307 26.5558 7.3714 26.9285C5.91984 27.5091 4.46744 27.5138 3.471 27.2803C3.02181 27.1751 2.4719 26.9778 2.12464 26.5958C1.92983 26.3814 1.67923 25.9604 1.82863 25.4303C1.96191 24.9574 2.33294 24.7155 2.55281 24.6056C2.94246 24.4107 3.35432 24.1053 3.70041 23.7526C3.7933 23.6579 3.87739 23.564 3.95255 23.4724C2.76121 22.5549 2.00001 21.0251 2.00001 19L2.0001 9.50108C2.00012 6.74001 4.23834 4.5 7.00012 4.5H18C18.5523 4.5 19 4.94772 19 5.5C19 6.05228 18.5523 6.5 18 6.5H7.00012Z" fill="black"/>
</svg>

<svg xmlns="http://www.w3.org/2000/svg" width="32" height="32" viewBox="0 0 32 32"><path d="m25.506 4.328-.308.893-.945-.326.938.346a1.35 1.35 0 0 1-1.208.879h-.871l.658.566a1.4 1.4 0 0 1 .458 1.459l-.005.017-.283.876.813-.554a1.35 1.35 0 0 1 1.495 0l.008.006.805.549-.293-.91-.005-.018a1.35 1.35 0 0 1 .44-1.404l.684-.586h-.827l-.02-.001a1.35 1.35 0 0 1-1.21-.879l-.005-.013zm-2.044-.207.77-2.23.004-.01a1.346 1.346 0 0 1 2.527 0l.004.012.787 2.228h2.154a1.347 1.347 0 0 1 .801 2.385L28.815 7.96l.745 2.314.006.02a1.345 1.345 0 0 1-2.044 1.48l-.009-.006-2.013-1.373-2.022 1.38a1.346 1.346 0 0 1-2.044-1.482l.006-.02.746-2.311-1.695-1.456a1.346 1.346 0 0 1 .8-2.385h2.17M7 6.5c-1.656 0-3 1.344-3 3.001V19c0 1.848.815 2.813 1.715 3.208a1 1 0 0 1 .54 1.252c-.222.62-.652 1.21-1.127 1.693q-.136.139-.282.272a5 5 0 0 0 1.783-.354c.803-.32 1.488-.703 2.194-1.096.276-.154.555-.309.846-.463.98-.52 2.072-1.012 3.331-1.012h12.003a3 3 0 0 0 2.997-3V14a1 1 0 1 1 2 0v5.5c0 2.76-2.235 5-4.997 5H13c-.74 0-1.465.285-2.393.778q-.335.18-.713.391c-.737.411-1.59.887-2.523 1.26-1.451.58-2.904.585-3.9.351-.45-.105-1-.302-1.346-.684-.195-.215-.446-.636-.296-1.166.133-.473.504-.715.724-.824a4.5 4.5 0 0 0 1.4-1.134C2.76 22.555 2 21.025 2 19V9.501A5 5 0 0 1 7 4.5h11a1 1 0 1 1 0 2z"/></svg>
